svgs/duotone/file-xmark.svg

<svg xmlns="http://www.w3.org/2000/svg" viewBox="0 0 384 512"><!--! Font Awesome Pro 6.3.0 by @fontawesome - https://fontawesome.com License - https://fontawesome.com/license (Commercial License) Copyright 2023 Fonticons, Inc. --><defs><style>.fa-secondary{opacity:.4}</style></defs><path class="fa-primary" d="M256 0v128h128L256 0zM272.1 239c-9.375-9.375-24.56-9.375-33.94 0L192 286.1L144.1 239c-9.375-9.375-24.56-9.375-33.94 0s-9.375 24.56 0 33.94L158.1 320l-47.03 47.03c-9.375 9.375-9.375 24.56 0 33.94c9.375 9.371 24.55 9.379 33.94 0L192 353.9l47.03 47.03c9.375 9.371 24.55 9.379 33.94 0c9.375-9.375 9.375-24.56 0-33.94L225.9 320l47.03-47.03C282.3 263.6 282.3 248.4 272.1 239z"/><path class="fa-secondary" d="M256 128V0H48C21.49 0 0 21.49 0 48v416C0 490.5 21.49 512 48 512h288c26.51 0 48-21.49 48-48V128H256zM272.1 367c9.375 9.375 9.375 24.56 0 33.94c-9.383 9.379-24.56 9.371-33.94 0L192 353.9l-47.03 47.03c-9.383 9.379-24.56 9.371-33.94 0c-9.375-9.375-9.375-24.56 0-33.94L158.1 320L111 272.1c-9.375-9.375-9.375-24.56 0-33.94s24.56-9.375 33.94 0L192 286.1l47.03-47.03c9.375-9.375 24.56-9.375 33.94 0s9.375 24.56 0 33.94L225.9 320L272.1 367z"/></svg>

<svg xmlns="http://www.w3.org/2000/svg" viewBox="0 0 384 512"><!-- Font Awesome Pro 6.0.0-alpha2 by @fontawesome - https://fontawesome.com License - https://fontawesome.com/license (Commercial License) --><defs><style>.fa-secondary{opacity:.4}</style></defs><path d="M256 128V0H48C21.492 0 0 21.492 0 48V464C0 490.508 21.492 512 48 512H336C362.508 512 384 490.508 384 464V128H256ZM272.969 367.031C282.344 376.406 282.344 391.594 272.969 400.969C263.586 410.348 248.406 410.34 239.031 400.969L192 353.938L144.969 400.969C135.586 410.348 120.406 410.34 111.031 400.969C101.656 391.594 101.656 376.406 111.031 367.031L158.062 320L111.031 272.969C101.656 263.594 101.656 248.406 111.031 239.031S135.594 229.656 144.969 239.031L192 286.062L239.031 239.031C248.406 229.656 263.594 229.656 272.969 239.031S282.344 263.594 272.969 272.969L225.938 320L272.969 367.031Z" class="fa-secondary"/><path d="M256 0V128H384L256 0ZM272.969 239.031C263.594 229.656 248.406 229.656 239.031 239.031L192 286.062L144.969 239.031C135.594 229.656 120.406 229.656 111.031 239.031S101.656 263.594 111.031 272.969L158.063 320L111.031 367.031C101.656 376.406 101.656 391.594 111.031 400.969C120.406 410.34 135.586 410.348 144.969 400.969L192 353.938L239.031 400.969C248.406 410.34 263.586 410.348 272.969 400.969C282.344 391.594 282.344 376.406 272.969 367.031L225.938 320L272.969 272.969C282.344 263.594 282.344 248.406 272.969 239.031Z" class="fa-primary"/></svg>
